frontend/public/svg/arrows/chevrons-down.svg

<svg width="91" height="99" viewBox="0 0 91 99" fill="none" xmlns="http://www.w3.org/2000/svg">
<path d="M45.4294 89.0373C49.7395 83.5897 53.604 78.742 57.4357 73.8654C63.7103 65.8785 69.8405 57.7719 76.2864 49.9274C78.9741 46.6568 82.2998 43.9049 85.3833 40.9678C86.7071 39.7063 88.4109 38.6049 90.0065 40.1007C91.7786 41.7606 90.6629 43.5722 89.2846 44.9577C74.4514 59.8625 64.2741 78.3141 51.3705 94.6891C47.5677 99.5145 44.3654 100.143 39.6608 96.0575C38.1526 94.7928 36.7389 93.4196 35.4308 91.9489C26.2532 81.2604 16.9876 70.6421 8.06665 59.7423C5.20239 56.2434 3.23017 51.9976 1.00124 48.0084C0.621879 47.3284 0.775416 45.5366 1.08521 45.4303C2.22264 45.0365 3.88641 44.6052 4.71077 45.1526C7.95308 47.3073 11.3608 49.4549 13.9593 52.2896C20.2312 59.1333 26.0667 66.3753 32.111 73.429C35.6657 77.577 39.2913 81.6653 42.8663 85.7963C43.6467 86.7001 44.3523 87.6728 45.4294 89.0373Z" fill="black"/>
<path d="M45.4294 49.6574C49.7395 44.2098 53.604 39.3621 57.4357 34.4856C63.7103 26.4986 69.8405 18.392 76.2864 10.5475C78.9741 7.27696 82.2998 4.52502 85.3833 1.58791C86.7071 0.326427 88.4109 -0.774937 90.0065 0.720856C91.7786 2.38073 90.6629 4.19232 89.2846 5.57785C74.4514 20.4826 64.2741 38.9343 51.3705 55.3092C47.5677 60.1346 44.3654 60.7634 39.6608 56.6777C38.1526 55.4129 36.7389 54.0397 35.4308 52.569C26.2532 41.8805 16.9876 31.2622 8.06665 20.3624C5.20239 16.8635 3.23017 12.6177 1.00124 8.62848C0.621879 7.94851 0.775416 6.15672 1.08521 6.0504C2.22264 5.65659 3.88641 5.22532 4.71077 5.7727C7.95308 7.92746 11.3608 10.075 13.9593 12.9097C20.2312 19.7534 26.0667 26.9954 32.111 34.0491C35.6657 38.1971 39.2913 42.2855 42.8663 46.4165C43.6467 47.3202 44.3523 48.2929 45.4294 49.6574Z" fill="black"/>
</svg>

<svg xmlns="http://www.w3.org/2000/svg" width="91" height="99" fill="none" viewBox="0 0 91 99"><path fill="#000" d="M45.43 89.037c4.31-5.447 8.174-10.295 12.006-15.172 6.274-7.986 12.405-16.093 18.85-23.938 2.688-3.27 6.014-6.022 9.097-8.96 1.324-1.26 3.028-2.362 4.624-.866 1.772 1.66.656 3.471-.722 4.857C74.45 59.862 64.275 78.314 51.37 94.689c-3.803 4.826-7.006 5.454-11.71 1.369a40.4 40.4 0 0 1-4.23-4.11C26.253 81.26 16.988 70.643 8.067 59.743 5.202 56.243 3.23 51.998 1 48.008c-.38-.68-.226-2.471.084-2.578 1.138-.394 2.801-.825 3.626-.277 3.242 2.154 6.65 4.302 9.248 7.137 6.272 6.843 12.108 14.085 18.152 21.139 3.555 4.148 7.18 8.236 10.755 12.367.78.904 1.486 1.877 2.563 3.241"/><path fill="#000" d="M45.43 49.657c4.31-5.447 8.174-10.295 12.006-15.171 6.274-7.987 12.405-16.094 18.85-23.938 2.688-3.271 6.014-6.023 9.097-8.96C86.707.326 88.411-.775 90.007.72c1.772 1.66.656 3.471-.722 4.857C74.45 20.483 64.275 38.934 51.37 55.309c-3.803 4.826-7.006 5.454-11.71 1.369a40.4 40.4 0 0 1-4.23-4.109C26.253 41.88 16.988 31.262 8.067 20.362 5.202 16.864 3.23 12.618 1 8.628c-.38-.68-.226-2.471.084-2.578 1.138-.393 2.801-.825 3.626-.277 3.242 2.154 6.65 4.302 9.248 7.137 6.272 6.843 12.108 14.085 18.152 21.14 3.555 4.147 7.18 8.236 10.755 12.367.78.903 1.486 1.876 2.563 3.24"/></svg>
